svgs/regular/blanket.svg

<svg xmlns="http://www.w3.org/2000/svg" viewBox="0 0 448 512"><!--! Font Awesome Pro 6.6.0 by @fontawesome - https://fontawesome.com License - https://fontawesome.com/license (Commercial License) Copyright 2024 Fonticons, Inc. --><path d="M48 144l0 132.1C66.1 263.4 88.2 256 112 256l268 0c7 0 13.7 1 20 3l0-115c0-35.3-28.7-64-64-64L112 80c-35.3 0-64 28.7-64 64zM0 368L0 144C0 82.1 50.1 32 112 32l224 0c61.9 0 112 50.1 112 112l0 176-.1 0c.1 1.3 .1 2.7 .1 4c0 37.6-30.4 68-68 68l-260 0c-13.3 0-24-10.7-24-24s10.7-24 24-24l260 0c11 0 20-9 20-20s-9-20-20-20l-268 0c-35.3 0-64 28.7-64 64s28.7 64 64 64l312 0c13.3 0 24 10.7 24 24s-10.7 24-24 24l-312 0C50.1 480 0 429.9 0 368z"/></svg>

<svg xmlns="http://www.w3.org/2000/svg" viewBox="0 0 448 512"><!--! Font Awesome Pro 6.4.0 by @fontawesome - https://fontawesome.com License - https://fontawesome.com/license (Commercial License) Copyright 2023 Fonticons, Inc. --><path d="M48 144V276.1C66.1 263.4 88.2 256 112 256H380c7 0 13.7 1 20 3V144c0-35.3-28.7-64-64-64H112c-35.3 0-64 28.7-64 64zM0 368V144C0 82.1 50.1 32 112 32H336c61.9 0 112 50.1 112 112V320h-.1c.1 1.3 .1 2.7 .1 4c0 37.6-30.4 68-68 68H120c-13.3 0-24-10.7-24-24s10.7-24 24-24H380c11 0 20-9 20-20s-9-20-20-20H112c-35.3 0-64 28.7-64 64s28.7 64 64 64H424c13.3 0 24 10.7 24 24s-10.7 24-24 24H112C50.1 480 0 429.9 0 368z"/></svg>
